ext/back.svg

<?xml version="1.0" encoding="UTF-8" standalone="no"?>
<svg width="31px" height="31px" viewBox="0 0 31 31" version="1.1" xmlns="http://www.w3.org/2000/svg" xmlns:xlink="http://www.w3.org/1999/xlink" xmlns:sketch="http://www.bohemiancoding.com/sketch/ns">
    <!-- Generator: Sketch Beta 3.1.1 (8761) - http://www.bohemiancoding.com/sketch -->
    <title>citation-back-arrow 2</title>
    <desc>Created with Sketch Beta.</desc>
    <defs></defs>
    <g id="Page-1" stroke="none" stroke-width="1" fill="none" fill-rule="evenodd" sketch:type="MSPage">
        <g id="Rectangle-1" sketch:type="MSLayerGroup" transform="translate(6.000000, 6.000000)" fill="#000000">
            <path d="M2.78334575,4.25187803 L2.78334575,4.21747526 L2.80521427,4.21747526 L5.78534158,0.91818984 C6.62343317,-0.00965755939 7.30284064,0.250708882 7.30284064,1.50569541 L7.30284064,4.21747526 L7.30284064,4.21747526 L9.70037756,4.21747526 L9.70037756,10.5531055 L7.30284064,10.5531055 L7.30284064,10.5531055 L7.30284064,13.3758569 C7.30284064,14.6203374 6.62906216,14.8676704 5.79791428,13.9295425 L2.8065114,10.5531055 L2.78334575,10.5531055 L2.78334575,10.5032501 L0.000593838209,7.38529367 L2.78334575,4.25187803 Z M9.70037756,10.5531055 L11.4916408,10.6081979 L13.1175566,10.8561139 L14.1923145,11.131576 L14.9363777,11.4621307 L15.5977672,11.9304164 L16.176483,12.4813407 L16.5611094,13.00063 L16.94692,13.5515544 L17.194941,14.2137396 L17.47052,15.4257732 L17.6083095,16.6633086 L17.6358674,17.9078381 L17.5256358,19.2587864 C17.5256358,19.7164351 17.943956,20.3626796 17.943956,20.3626796 L17.5256358,20.0874326 C17.7566677,20.2394474 18.6555095,18.8731394 18.6555095,18.8731394 L19.3720148,16.7532642 C19.7220703,15.7655252 20.0058464,13.3099869 20.0058464,13.3099869 C20.0058464,12.0179808 19.3995727,9.1780542 19.3995727,9.1780542 C19.0980303,8.28159529 17.7736569,6.58870968 17.7736569,6.58870968 L16.8366884,5.925556 L16.1201831,5.48363288 L14.9891253,5.04289339 L14.1072726,4.71233877 L13.0325147,4.46442281 L12.0149178,4.35423793 L9.70037756,4.22177936 L9.70037756,10.5531055 Z" sketch:type="MSShapeGroup"></path>
        </g>
    </g>
</svg>

<?xml version="1.0" encoding="UTF-8" standalone="no"?>
<svg
   xmlns:sketch="http://www.bohemiancoding.com/sketch/ns"
   xmlns:dc="http://purl.org/dc/elements/1.1/"
   xmlns:cc="http://creativecommons.org/ns#"
   xmlns:rdf="http://www.w3.org/1999/02/22-rdf-syntax-ns#"
   xmlns:svg="http://www.w3.org/2000/svg"
   xmlns="http://www.w3.org/2000/svg"
   xmlns:sodipodi="http://sodipodi.sourceforge.net/DTD/sodipodi-0.dtd"
   xmlns:inkscape="http://www.inkscape.org/namespaces/inkscape"
   width="31px"
   height="31px"
   viewBox="0 0 31 31"
   version="1.1"
   id="svg2"
   inkscape:version="0.48.4 r9939"
   sodipodi:docname="back.svg">
  <metadata
     id="metadata16">
    <rdf:RDF>
      <cc:Work
         rdf:about="">
        <dc:format>image/svg+xml</dc:format>
        <dc:type
           rdf:resource="http://purl.org/dc/dcmitype/StillImage" />
      </cc:Work>
    </rdf:RDF>
  </metadata>
  <sodipodi:namedview
     pagecolor="#ffffff"
     bordercolor="#666666"
     borderopacity="1"
     objecttolerance="10"
     gridtolerance="10"
     guidetolerance="10"
     inkscape:pageopacity="0"
     inkscape:pageshadow="2"
     inkscape:window-width="640"
     inkscape:window-height="480"
     id="namedview14"
     showgrid="false"
     inkscape:zoom="7.6129032"
     inkscape:cx="15.5"
     inkscape:cy="15.5"
     inkscape:window-x="75"
     inkscape:window-y="34"
     inkscape:window-maximized="0"
     inkscape:current-layer="svg2" />
  <!-- Generator: Sketch Beta 3.1.1 (8761) - http://www.bohemiancoding.com/sketch -->
  <title
     id="title4">citation-back-arrow 2</title>
  <desc
     id="desc6">Created with Sketch Beta.</desc>
  <defs
     id="defs8" />
  <g
     id="Page-1"
     sketch:type="MSPage"
     transform="matrix(0.58633745,0,0,0.58633745,5.7957799,7.3184427)"
     style="fill:none;stroke:none">
    <g
       id="Rectangle-1"
       sketch:type="MSLayerGroup"
       transform="translate(6,6)"
       style="fill:#000000">
      <path
         d="m 2.7833458,4.251878 0,-0.034403 0.021868,0 2.9801273,-3.29928546 c 0.8380916,-0.9278474 1.517499,-0.66748096 1.517499,0.58750556 l 0,2.7117799 0,0 2.397537,0 0,6.33563 -2.397537,0 0,0 0,2.822752 c 0,1.24448 -0.6737784,1.491813 -1.5049263,0.553686 l -2.9914029,-3.376438 -0.023166,0 0,-0.04986 L 5.9383821e-4,7.3852937 2.7833458,4.251878 z m 6.9170318,6.301227 1.7912634,0.05509 1.625916,0.247916 1.074758,0.275462 0.744063,0.330555 0.661389,0.468285 0.578716,0.550925 0.384626,0.519289 0.385811,0.550924 0.248021,0.662186 0.275579,1.212033 0.137789,1.237536 0.02756,1.244529 -0.110231,1.350948 c 0,0.457649 0.41832,1.103894 0.41832,1.103894 l -0.41832,-0.275247 c 0.231032,0.152014 1.129873,-1.214294 1.129873,-1.214294 l 0.716506,-2.119875 c 0.350055,-0.987739 0.633831,-3.443277 0.633831,-3.443277 0,-1.292006 -0.606273,-4.1319328 -0.606273,-4.1319328 C 19.09803,8.2815953 17.773657,6.5887097 17.773657,6.5887097 L 16.836688,5.925556 16.120183,5.4836329 14.989125,5.0428934 14.107273,4.7123388 13.032515,4.4644228 12.014918,4.3542379 9.7003776,4.2217794 l 0,6.3313256 z"
         sketch:type="MSShapeGroup"
         id="path12"
         inkscape:connector-curvature="0" />
    </g>
  </g>
</svg>
